X:1
T: After You’ve Gone
C: Turner Layton
M: 4/4
L: 1/8
K:Bb
"Ebmaj7" GB cd-d4 | "Ebm7" zc dc d c3 | "Bbmaj7" DF GA-A4 | "G7" GA GA G3 |
"C7" G d2 d-d4 | "F7" G c2 c-c4 | "Bbmaj7" z F GF AF GF | B D2 F-"Bb7"F4 |
"Ebmaj7"G B c d-d4 | "Ebm7"z c d c d c3 | "Bbmaj7"D F G A-A4 | "G7" G A G A G3 |
"Cm7" e4 "G7" d4 | "Cm7"c ^F G d-"Ebm7"d2 c2 | "Bbmaj7" z ^c d B "D7" =c ^B c A | "Gm7"=B ^C D A-"A7"A2 G2|
"Bbmaj7" G B c d-d4 | z E F A c2 d2 | d-B-B4 d2 | B4-B2 z2 |]
